src/assets/healthPage/DentalEmergency/Card.svg

<svg height="94.651" viewBox="0 0 142 94.651" width="142" xmlns="http://www.w3.org/2000/svg"><g opacity=".9" transform="translate(0 -.667)"><path d="m0 8a8 8 0 0 1 8-8h108.25a8 8 0 0 1 8 8v60.917a8 8 0 0 1 -8 8h-15.667l-5.663-50.967a2.567 2.567 0 0 0 -2.551-2.283h-92.369z" fill="#f5f5f5" opacity=".3" transform="translate(17.75 .667)"/><path d="m117.283 76.886h-110.316a6.973 6.973 0 0 1 -6.967-6.94v-63.006a6.973 6.973 0 0 1 6.967-6.94h110.316a6.973 6.973 0 0 1 6.968 6.94v63.006a6.973 6.973 0 0 1 -6.968 6.94zm-17.783-41.318a16.5 16.5 0 1 0 11.667 4.832 16.388 16.388 0 0 0 -11.667-4.832zm-50.186 29.273a1.735 1.735 0 1 0 0 3.47h7.021a1.735 1.735 0 1 0 0-3.47zm-38.691 0a1.735 1.735 0 1 0 0 3.47h31.6a1.735 1.735 0 1 0 0-3.47zm15.161-10.041a1.735 1.735 0 1 0 0 3.469h30.551a1.735 1.735 0 1 0 0-3.469zm-15.161 0a1.735 1.735 0 1 0 0 3.469h8.066a1.735 1.735 0 1 0 0-3.469zm.377-9.8a2 2 0 1 0 0 4h58a2 2 0 0 0 0-4zm88.5 20.568a13.5 13.5 0 0 1 -.017-27h.017a13.5 13.5 0 1 1 0 27zm-8.5-11a9.8 9.8 0 0 0 2.908 5.717 8.189 8.189 0 0 0 5.572 2.285h.025a8.148 8.148 0 0 0 5.585-2.272 9.766 9.766 0 0 0 2.91-5.73 47.745 47.745 0 0 1 -8.7 1.551 41.344 41.344 0 0 1 -8.3-1.551z" fill="#fff" transform="translate(0 18.432)"/></g></svg>

<svg xmlns="http://www.w3.org/2000/svg" width="142" height="94.651" viewBox="0 0 142 94.651">
  <g id="Icons_credit_card" data-name="Icons/credit_card" transform="translate(0 -0.667)" opacity="0.9">
    <path id="Card_light" d="M0,8A8,8,0,0,1,8,0H116.25a8,8,0,0,1,8,8V68.917a8,8,0,0,1-8,8H100.583L94.92,25.95a2.567,2.567,0,0,0-2.551-2.283H0Z" transform="translate(17.75 0.667)" fill="#f5f5f5" opacity="0.3"/>
    <path id="Card_gri" d="M117.283,76.886H6.967A6.973,6.973,0,0,1,0,69.946V6.94A6.973,6.973,0,0,1,6.967,0H117.283a6.973,6.973,0,0,1,6.968,6.94V69.946A6.973,6.973,0,0,1,117.283,76.886ZM99.5,35.568A16.5,16.5,0,1,0,111.167,40.4,16.388,16.388,0,0,0,99.5,35.568ZM49.314,64.841a1.735,1.735,0,1,0,0,3.47h7.021a1.735,1.735,0,1,0,0-3.47Zm-38.691,0a1.735,1.735,0,1,0,0,3.47h31.6a1.735,1.735,0,1,0,0-3.47ZM25.784,54.8a1.735,1.735,0,1,0,0,3.469H56.335a1.735,1.735,0,1,0,0-3.469Zm-15.161,0a1.735,1.735,0,1,0,0,3.469h8.066a1.735,1.735,0,1,0,0-3.469ZM11,45a2,2,0,1,0,0,4H69a2,2,0,0,0,0-4ZM99.5,65.568a13.5,13.5,0,0,1-.017-27H99.5a13.5,13.5,0,1,1,0,27Zm-8.5-11a9.8,9.8,0,0,0,2.908,5.717A8.189,8.189,0,0,0,99.48,62.57l.025,0a8.148,8.148,0,0,0,5.585-2.272A9.766,9.766,0,0,0,108,54.568a47.745,47.745,0,0,1-8.7,1.551A41.344,41.344,0,0,1,91,54.568Z" transform="translate(0 18.432)" fill="#fff"/>
  </g>
</svg>
